X:1
T:Title
%%score { 1 | ( 2 3 ) }
L:1/8
M:4/4
K:Eb
V:1 treble nm="Grand Piano"
V:2 bass 
V:3 bass 
V:1
 z4 z2[Q:1/4=100] [EG][FA] | [GB]2 [Ge]2 [Fd]2 [EGe]2 | [EBd]3 [EAc] [EAc]2 [DF][EG] | %3
 [FA]2 [Ac]2 [GB]2 [_G=A]2 | [GB]4 [EG]2 [EG][FA] | [GB]2 [Ge]2 [Fd]2 [EGe]2 | %6
 [EBd]3 [EAc] [EAc]2 [Ece]2 | [Bd]c[GB]A [B,EG]2 [B,DF]2 | [B,FA]4 [B,EG]2 z2 | G2 B,2 A2 B,2 | %10
 B2 B,2 G2 [GB][GB] | [Ac][GB][FA][EG] [DF]2 [FA]2 | [FA]4 G2 z2 | G2 B,2 A2 B,2 | %14
[M:9/8] B2 B,- B, c2- ccc |[M:4/4] FGAB [Ac]2 [Ad]2 |[M:3/4] [Ge]6 |] %17
V:2
 z4 z2 [E,B,]2 | [E,B,]2 [E,B,]2 [E,B,]2 E,2 | A,,3 A,, A,,2 [B,,B,]2 | %3
 [B,,B,]2 [B,,B,]2 [B,,B,]2 [B,,B,]2 | [E,B,]4 [E,B,]2 [E,B,]2 | [E,B,]2 [E,B,]2 [E,B,]2 E,2 | %6
 A,3 A, A,2 A,2 | B,2[K:treble] B,2[K:bass] z4 | B,,4 E,2 z2 | E2 E,2 F2 B,,2 | %10
 G2 E,2 [E,B,E]2 [E,B,][E,B,] | [B,,B,][B,,B,][B,,B,][B,,B,] [B,,B,]2 [B,,B,]2 | z4 E2 z2 | %13
 E2 E,2 F2 B,,2 |[M:9/8] G2 E,- E,[K:treble] [A,E]2- [A,E][A,CE][A,CE] | %15
[M:4/4] [B,D][B,E][B,F][B,G][K:bass] [B,,B,]2 [B,,B,]2 |[M:3/4] [E,B,]6 |] %17
V:3
 x8 | x8 | x8 | x8 | x8 | x8 | x8 | z[K:treble] A z F[K:bass] B,,2 B,,2 | x8 | x8 | x8 | x8 | %12
 [E,B,]6 z2 | x8 |[M:9/8] x4[K:treble] x5 |[M:4/4] x4[K:bass] x4 |[M:3/4] x6 |] %17

